; generated by Slic3r 1.3.0 on 2024-05-01 at 11:35:00

; Printer Config Notes: 
; Don't remove the following keywords! These keywords are used in the "compatible printer" condition of the print and filament profiles to link the particular print and filament profiles to this printer profile.
; PRINTER_MODEL_MK4IS
; PG
; 
; external perimeters extrusion width = 0.45mm (13.84mm^3/s)
; perimeters extrusion width = 0.45mm (13.84mm^3/s)
; infill extrusion width = 0.45mm (16.28mm^3/s)
; solid infill extrusion width = 0.45mm (16.28mm^3/s)
; top infill extrusion width = 0.42mm (7.54mm^3/s)
; support material extrusion width = 0.36mm (7.61mm^3/s)

M107
M17 ; enable steppers
M862.1 P0.4 ; nozzle diameter check
M862.3 P "MK4" ; printer model check
M862.5 P2 ; g-code level check
M862.6 P"Input shaper" ; FW feature check
M115 U5.1.2+13478

G90 ; use absolute coordinates
M83 ; extruder relative mode

M140 S60 ; set bed temp
M104 T0 S170 ; set extruder temp for bed leveling
M109 T0 R170 ; wait for temp

M84 E ; turn off E motor

G28 ; home all without mesh bed level

G1 X42 Y-4 Z5 F4800

M302 S160 ; lower cold extrusion limit to 160C

G1 E-2 F2400 ; retraction

M84 E ; turn off E motor

G29 P9 X10 Y-4 W32 H4

M106 S100

G0 Z40 F10000

M190 S60 ; wait for bed temp

M107

;
; MBL
;
M84 E ; turn off E motor
G29 P1 ; invalidate mbl & probe print area
G29 P1 X0 Y0 W50 H20 C ; probe near purge place
G29 P3.2 ; interpolate mbl probes
G29 P3.13 ; extrapolate mbl outside probe area
G29 A ; activate mbl

; prepare for purge
M104 S230
G0 X0 Y-4 Z15 F4800 ; move away and ready for the purge
M109 S230

G92 E0
M569 S0 E ; set spreadcycle mode for extruder

;
; Extrude purge line
;
G92 E0 ; reset extruder position
G1 E2 F2400 ; deretraction after the initial one before nozzle cleaning
G0 E7 X15 Z0.2 F500 ; purge
G0 X25 E4 F500 ; purge
G0 X35 E4 F650 ; purge
G0 X45 E4 F800 ; purge
G0 X48 Z0.05 F8000 ; wipe, move close to the bed
G0 X51 Z0.2 F8000 ; wipe, move quickly away from the bed

G92 E0
M221 S100 ; set flow to 100%
M900 K0.05{elsif nozzle_diameter[0]==0.25}0.14{elsif nozzle_diameter[0]==0.3}0.07{elsif nozzle_diameter[0]==0.35}0.06{elsif nozzle_diameter[0]==0.6}0.03{elsif nozzle_diameter[0]==0.5}0.035{elsif nozzle_diameter[0]==0.8}0.015{else}0{endif} ; Filament gcode


M572 S0.036{elsif nozzle_diameter[0]==0.5}0.025{elsif nozzle_diameter[0]==0.6}0.02{elsif nozzle_diameter[0]==0.8}0.014{elsif nozzle_diameter[0]==0.25}0.12{elsif nozzle_diameter[0]==0.3}0.08{else}0{endif} ; Filament gcode
{endif}

M142 S36 ; set heatbreak target temp
G21 ; set units to millimeters
G90 ; use absolute coordinates
M83 ; use relative distances for extrusion
T0
beforelayer.gcode
G1 E-0.70000 F2100.00000
G1 Z0.200 F18000.000
;AFTER_LAYER_CHANGE
;0.2
G1 Z0.400 F18000.000
G1 X116.502 Y110.825 F18000.000
G1 Z0.200 F18000.000
G1 E0.70000 F2100.00000
M201 X500 Y500
M204 P500 T500
G1 F2400
G1 X117.103 Y110.292 E0.03052
G1 X117.591 Y110.036 E0.02097
G1 X117.814 Y109.919 E0.00955
G1 X118.593 Y109.727 E0.03052
G1 X119.396 Y109.727 E0.03052
G1 X120.176 Y109.919 E0.03052
G1 X120.887 Y110.292 E0.03052
G1 X121.488 Y110.825 E0.03052
G1 X121.944 Y111.485 E0.03052
G1 X122.229 Y112.236 E0.03052
G1 X122.325 Y113.033 E0.03052
G1 X122.229 Y113.830 E0.03052
G1 X121.944 Y114.581 E0.03052
G1 X121.488 Y115.242 E0.03052
G1 X120.887 Y115.774 E0.03052
G1 X120.176 Y116.147 E0.03052
G1 X119.396 Y116.339 E0.03052
G1 X118.593 Y116.339 E0.03052
G1 X117.814 Y116.147 E0.03052
G1 X117.103 Y115.774 E0.03052
G1 X116.502 Y115.242 E0.03052
G1 X116.046 Y114.581 E0.03052
G1 X115.761 Y113.830 E0.03052
G1 X115.664 Y113.033 E0.03052
G1 X115.761 Y112.236 E0.03052
G1 X116.046 Y111.485 E0.03052
G1 X116.468 Y110.874 E0.02823
M201 X4000 Y4000
M204 P4000 T4000
G1 X116.502 Y110.825 F18000.000
G1 E-0.70000 F2100.00000
G1 Z0.400 F18000.000
G1 X127.771 Y112.203 F18000.000
G1 Z0.200 F18000.000
G1 E0.70000 F2100.00000
M201 X500 Y500
M204 P500 T500
G1 F2400
G1 X128.056 Y111.452 E0.03052
G1 X128.512 Y110.791 E0.03052
G1 X129.113 Y110.259 E0.03052
G1 X129.824 Y109.886 E0.03052
G1 X130.604 Y109.694 E0.03052
G1 X131.407 Y109.694 E0.03052
G1 X132.186 Y109.886 E0.03052
G1 X132.897 Y110.259 E0.03052
G1 X133.498 Y110.791 E0.03052
G1 X133.954 Y111.452 E0.03052
G1 X134.239 Y112.203 E0.03052
G1 X134.336 Y113.000 E0.03052
G1 X134.239 Y113.797 E0.03052
G1 X133.954 Y114.548 E0.03052
G1 X133.498 Y115.209 E0.03052
G1 X132.900 Y115.739 E0.03038
G1 X132.361 Y116.040 E0.02346
G1 X132.175 Y116.117 E0.00766
G1 X131.414 Y116.304 E0.02978
G1 X131.005 Y116.329 E0.01557
G1 X130.596 Y116.304 E0.01557
G1 X129.836 Y116.117 E0.02978
G1 X129.649 Y116.040 E0.00766
G1 X129.111 Y115.739 E0.02346
G1 X128.512 Y115.209 E0.03038
G1 X128.056 Y114.548 E0.03052
G1 X127.771 Y113.797 E0.03052
G1 X127.675 Y113.000 E0.03052
G1 X127.764 Y112.263 E0.02823
M201 X4000 Y4000
M204 P4000 T4000
G1 X127.771 Y112.203 F18000.000
G1 E-0.70000 F2100.00000
G1 Z0.400 F18000.000
G1 X130.604 Y100.306 F18000.000
G1 Z0.200 F18000.000
G1 E0.70000 F2100.00000
M201 X500 Y500
M204 P500 T500
G1 F2400
G1 X129.824 Y100.114 E0.03052
G1 X129.113 Y99.741 E0.03052
G1 X128.512 Y99.209 E0.03052
G1 X128.056 Y98.548 E0.03052
G1 X127.771 Y97.797 E0.03052
G1 X127.675 Y97.000 E0.03052
G1 X127.771 Y96.203 E0.03052
G1 X128.056 Y95.452 E0.03052
G1 X128.512 Y94.791 E0.03052
G1 X129.111 Y94.261 E0.03038
G1 X129.649 Y93.960 E0.02346
G1 X129.836 Y93.883 E0.00766
G1 X130.596 Y93.696 E0.02978
G1 X130.891 Y93.678 E0.01123
G1 X131.411 Y93.695 E0.01975
G1 X132.175 Y93.883 E0.02991
G1 X132.361 Y93.960 E0.00766
G1 X132.900 Y94.261 E0.02346
G1 X133.498 Y94.791 E0.03038
G1 X133.954 Y95.452 E0.03052
G1 X134.239 Y96.203 E0.03052
G1 X134.336 Y97.000 E0.03052
G1 X134.239 Y97.797 E0.03052
G1 X133.954 Y98.548 E0.03052
G1 X133.498 Y99.209 E0.03052
G1 X132.897 Y99.741 E0.03052
G1 X132.186 Y100.114 E0.03052
G1 X131.407 Y100.306 E0.03052
G1 X130.664 Y100.306 E0.02823
M201 X4000 Y4000
M204 P4000 T4000
G1 X130.604 Y100.306 F18000.000
G1 E-0.70000 F2100.00000
G1 Z0.400 F18000.000
G1 X122.406 Y103.415 F18000.000
G1 Z0.200 F18000.000
G1 E0.70000 F2100.00000
M201 X500 Y500
M204 P500 T500
G1 F2400
G1 X122.676 Y104.126 E0.02889
G1 X122.786 Y105.033 E0.03473
G1 X122.676 Y105.940 E0.03473
G1 X122.352 Y106.795 E0.03473
G1 X121.833 Y107.547 E0.03473
G1 X121.148 Y108.153 E0.03473
G1 X120.339 Y108.578 E0.03473
G1 X119.452 Y108.796 E0.03473
G1 X118.538 Y108.796 E0.03473
G1 X117.651 Y108.578 E0.03473
G1 X116.841 Y108.153 E0.03473
G1 X116.157 Y107.547 E0.03473
G1 X115.638 Y106.795 E0.03473
G1 X115.314 Y105.940 E0.03473
G1 X115.204 Y105.033 E0.03473
G1 X115.314 Y104.126 E0.03473
G1 X115.638 Y103.271 E0.03473
G1 X116.157 Y102.519 E0.03473
G1 X116.841 Y101.913 E0.03473
G1 X117.651 Y101.489 E0.03473
G1 X118.538 Y101.270 E0.03473
G1 X119.452 Y101.270 E0.03473
G1 X120.339 Y101.489 E0.03473
G1 X121.148 Y101.913 E0.03473
G1 X121.833 Y102.519 E0.03473
G1 X122.352 Y103.271 E0.03473
G1 X122.385 Y103.359 E0.00356
M201 X4000 Y4000
M204 P4000 T4000
G1 X121.979 Y103.577 F18000.000
M201 X500 Y500
M204 P500 T500
G1 F2400
G1 X122.229 Y104.236 E0.02678
G1 X122.325 Y105.033 E0.03052
G1 X122.229 Y105.830 E0.03052
G1 X121.944 Y106.581 E0.03052
G1 X121.488 Y107.242 E0.03052
G1 X120.887 Y107.774 E0.03052
G1 X120.176 Y108.147 E0.03052
G1 X119.396 Y108.339 E0.03052
G1 X118.593 Y108.339 E0.03052
G1 X117.814 Y108.147 E0.03052
G1 X117.103 Y107.774 E0.03052
G1 X116.502 Y107.242 E0.03052
G1 X116.046 Y106.581 E0.03052
G1 X115.761 Y105.830 E0.03052
G1 X115.664 Y105.033 E0.03052
G1 X115.761 Y104.236 E0.03052
G1 X116.046 Y103.485 E0.03052
G1 X116.502 Y102.825 E0.03052
G1 X117.103 Y102.292 E0.03052
G1 X117.814 Y101.919 E0.03052
G1 X118.593 Y101.727 E0.03052
G1 X119.396 Y101.727 E0.03052
G1 X120.176 Y101.919 E0.03052
G1 X120.887 Y102.292 E0.03052
G1 X121.488 Y102.825 E0.03052
G1 X121.958 Y103.521 E0.03193
M201 X4000 Y4000
M204 P4000 T4000
G1 X122.377 Y103.613 F18000.000
G1 E-0.70000 F2100.00000
G1 Z0.400 F18000.000
G1 X127.308 Y104.224 F18000.000
G1 Z0.200 F18000.000
G1 E0.70000 F2100.00000
M201 X500 Y500
M204 P500 T500
G1 F2400
G1 X127.324 Y104.093 E0.00504
G1 X127.648 Y103.238 E0.03473
G1 X128.168 Y102.486 E0.03473
G1 X128.852 Y101.880 E0.03473
G1 X129.661 Y101.455 E0.03473
G1 X130.548 Y101.237 E0.03473
G1 X131.462 Y101.237 E0.03473
G1 X132.349 Y101.455 E0.03473
G1 X133.159 Y101.880 E0.03473
G1 X133.843 Y102.486 E0.03473
G1 X134.362 Y103.238 E0.03473
G1 X134.686 Y104.093 E0.03473
G1 X134.796 Y105.000 E0.03473
G1 X134.686 Y105.907 E0.03473
G1 X134.362 Y106.762 E0.03473
G1 X133.843 Y107.514 E0.03473
G1 X133.159 Y108.120 E0.03473
G1 X132.349 Y108.545 E0.03473
G1 X131.462 Y108.763 E0.03473
G1 X130.548 Y108.763 E0.03473
G1 X129.661 Y108.545 E0.03473
G1 X128.852 Y108.120 E0.03473
G1 X128.168 Y107.514 E0.03473
G1 X127.648 Y106.762 E0.03473
G1 X127.324 Y105.907 E0.03473
G1 X127.214 Y105.000 E0.03473
G1 X127.301 Y104.284 E0.02742
M201 X4000 Y4000
M204 P4000 T4000
G1 X127.762 Y104.279 F18000.000
M201 X500 Y500
M204 P500 T500
G1 F2400
G1 X127.771 Y104.203 E0.00293
G1 X128.056 Y103.452 E0.03052
G1 X128.512 Y102.791 E0.03052
G1 X129.113 Y102.259 E0.03052
G1 X129.824 Y101.886 E0.03052
G1 X130.604 Y101.694 E0.03052
G1 X131.407 Y101.694 E0.03052
G1 X132.186 Y101.886 E0.03052
G1 X132.897 Y102.259 E0.03052
G1 X133.498 Y102.791 E0.03052
G1 X133.954 Y103.452 E0.03052
G1 X134.239 Y104.203 E0.03052
G1 X134.336 Y105.000 E0.03052
G1 X134.239 Y105.797 E0.03052
G1 X133.954 Y106.548 E0.03052
G1 X133.498 Y107.209 E0.03052
G1 X132.897 Y107.741 E0.03052
G1 X132.186 Y108.114 E0.03052
G1 X131.407 Y108.306 E0.03052
G1 X130.604 Y108.306 E0.03052
G1 X129.824 Y108.114 E0.03052
G1 X129.113 Y107.741 E0.03052
G1 X128.512 Y107.209 E0.03052
G1 X128.056 Y106.548 E0.03052
G1 X127.771 Y105.797 E0.03052
G1 X127.675 Y105.000 E0.03052
G1 X127.755 Y104.339 E0.02531
M201 X4000 Y4000
M204 P4000 T4000
G1 X127.700 Y104.234 F18000.000
G1 E-0.70000 F2100.00000
G1 Z0.400 F18000.000
G1 X128.730 Y93.988 F18000.000
G1 Z0.200 F18000.000
G1 E0.70000 F2100.00000
M201 X500 Y500
M204 P500 T500
G1 F2400
G1 X128.168 Y94.486 E0.02854
G1 X127.648 Y95.238 E0.03473
G1 X127.324 Y96.093 E0.03473
G1 X127.214 Y97.000 E0.03473
G1 X127.324 Y97.907 E0.03473
G1 X127.648 Y98.762 E0.03473
G1 X128.168 Y99.514 E0.03473
G1 X128.852 Y100.120 E0.03473
G1 X129.661 Y100.545 E0.03473
G1 X130.548 Y100.763 E0.03473
G1 X131.462 Y100.763 E0.03473
G1 X132.349 Y100.545 E0.03473
G1 X133.159 Y100.120 E0.03473
G1 X133.843 Y99.514 E0.03473
G1 X134.362 Y98.762 E0.03473
G1 X134.686 Y97.907 E0.03473
G1 X134.796 Y97.000 E0.03473
G1 X134.686 Y96.093 E0.03473
G1 X134.362 Y95.238 E0.03473
G1 X133.843 Y94.486 E0.03473
G1 X133.281 Y93.988 E0.02854
G1 X135.996 Y93.988 E0.10319
G1 X135.996 Y116.001 E0.83661
G1 X133.279 Y116.013 E0.10325
G1 X133.843 Y115.514 E0.02862
G1 X134.362 Y114.762 E0.03473
G1 X134.686 Y113.907 E0.03473
G1 X134.796 Y113.000 E0.03473
G1 X134.686 Y112.093 E0.03473
G1 X134.362 Y111.238 E0.03473
G1 X133.843 Y110.486 E0.03473
G1 X133.159 Y109.880 E0.03473
G1 X132.349 Y109.455 E0.03473
G1 X131.462 Y109.237 E0.03473
G1 X130.548 Y109.237 E0.03473
G1 X129.661 Y109.455 E0.03473
G1 X128.852 Y109.880 E0.03473
G1 X128.168 Y110.486 E0.03473
G1 X127.648 Y111.238 E0.03473
G1 X127.324 Y112.093 E0.03473
G1 X127.214 Y113.000 E0.03473
G1 X127.324 Y113.907 E0.03473
G1 X127.648 Y114.762 E0.03473
G1 X128.168 Y115.514 E0.03473
G1 X128.731 Y116.013 E0.02862
G1 X121.306 Y116.013 E0.28219
G1 X121.833 Y115.547 E0.02672
G1 X122.352 Y114.795 E0.03473
G1 X122.676 Y113.940 E0.03473
G1 X122.786 Y113.033 E0.03473
G1 X122.676 Y112.126 E0.03473
G1 X122.352 Y111.271 E0.03473
G1 X121.833 Y110.519 E0.03473
G1 X121.148 Y109.913 E0.03473
G1 X120.339 Y109.489 E0.03473
G1 X119.452 Y109.270 E0.03473
G1 X118.538 Y109.270 E0.03473
G1 X117.651 Y109.489 E0.03473
G1 X117.379 Y109.631 E0.01166
G1 X116.841 Y109.913 E0.02307
G1 X116.157 Y110.519 E0.03473
G1 X115.638 Y111.271 E0.03473
G1 X115.314 Y112.126 E0.03473
G1 X115.204 Y113.033 E0.03473
G1 X115.314 Y113.940 E0.03473
G1 X115.638 Y114.795 E0.03473
G1 X116.157 Y115.547 E0.03473
G1 X116.684 Y116.013 E0.02672
G1 X114.004 Y116.013 E0.10183
G1 X114.004 Y93.999 E0.83664
G1 X116.757 Y93.988 E0.10461
G1 X116.157 Y94.519 E0.03043
G1 X115.638 Y95.271 E0.03473
G1 X115.314 Y96.126 E0.03473
G1 X115.204 Y97.033 E0.03473
G1 X115.314 Y97.940 E0.03473
G1 X115.638 Y98.795 E0.03473
G1 X116.157 Y99.547 E0.03473
G1 X116.841 Y100.153 E0.03473
G1 X117.651 Y100.578 E0.03473
G1 X118.538 Y100.796 E0.03473
G1 X119.452 Y100.796 E0.03473
G1 X120.339 Y100.578 E0.03473
G1 X121.148 Y100.153 E0.03473
G1 X121.833 Y99.547 E0.03473
G1 X122.352 Y98.795 E0.03473
G1 X122.676 Y97.940 E0.03473
G1 X122.786 Y97.033 E0.03473
G1 X122.676 Y96.126 E0.03473
G1 X122.352 Y95.271 E0.03473
G1 X121.833 Y94.519 E0.03473
G1 X121.233 Y93.988 E0.03043
G1 X128.670 Y93.988 E0.28263
M201 X4000 Y4000
M204 P4000 T4000
G1 E-0.70000 F2100.00000
G1 Z0.400 F18000.000
G1 X122.229 Y96.236 F18000.000
G1 Z0.200 F18000.000
G1 E0.70000 F2100.00000
M201 X500 Y500
M204 P500 T500
G1 F2400
G1 X122.325 Y97.033 E0.03052
G1 X122.229 Y97.830 E0.03052
G1 X121.944 Y98.581 E0.03052
G1 X121.488 Y99.242 E0.03052
G1 X120.887 Y99.774 E0.03052
G1 X120.176 Y100.147 E0.03052
G1 X119.396 Y100.339 E0.03052
G1 X118.593 Y100.339 E0.03052
G1 X117.814 Y100.147 E0.03052
G1 X117.103 Y99.774 E0.03052
G1 X116.502 Y99.242 E0.03052
G1 X116.046 Y98.581 E0.03052
G1 X115.761 Y97.830 E0.03052
G1 X115.664 Y97.033 E0.03052
G1 X115.761 Y96.236 E0.03052
G1 X116.046 Y95.485 E0.03052
G1 X116.502 Y94.825 E0.03052
G1 X117.103 Y94.292 E0.03052
G1 X117.814 Y93.919 E0.03052
G1 X118.593 Y93.727 E0.03052
G1 X119.396 Y93.727 E0.03052
G1 X120.176 Y93.919 E0.03052
G1 X120.887 Y94.292 E0.03052
G1 X121.488 Y94.825 E0.03052
G1 X121.944 Y95.485 E0.03052
G1 X122.207 Y96.180 E0.02823
M201 X4000 Y4000
M204 P4000 T4000
G1 X122.229 Y96.236 F18000.000
G1 E-0.70000 F2100.00000
G1 Z0.400 F18000.000
G1 X113.547 Y93.546 F18000.000
G1 Z0.200 F18000.000
G1 E0.70000 F2100.00000
M201 X500 Y500
M204 P500 T500
G1 F2400
G1 X115.627 Y93.531 E0.07903
G1 X136.453 Y93.542 E0.79152
G1 X136.453 Y116.455 E0.87084
G1 X134.323 Y116.470 E0.08093
G1 X113.547 Y116.459 E0.78962
G1 X113.547 Y93.606 E0.86856
M201 X4000 Y4000
M204 P4000 T4000
G1 X113.896 Y93.742 F18000.000
G1 X114.510 Y94.406 F18000.000
M201 X500 Y500
M204 P500 T500
G1 F2400
G1 X114.413 Y94.503 E0.00529
G1 X114.413 Y95.158 E0.02517
G1 X115.167 Y94.404 E0.04103
G1 X115.698 Y94.401 E0.02044
G1 X115.419 Y94.805 E0.01889
G1 X114.413 Y95.812 E0.05476
G1 X114.413 Y96.466 E0.02517
G1 X114.918 Y95.962 E0.02747
G1 X114.826 Y96.708 E0.02894
G1 X114.413 Y97.121 E0.02246
G1 X114.413 Y97.775 E0.02517
G1 X114.837 Y97.351 E0.02305
G1 X114.907 Y97.935 E0.02261
G1 X114.413 Y98.429 E0.02691
G1 X114.413 Y99.084 E0.02517
G1 X115.075 Y98.422 E0.03601
G1 X115.255 Y98.896 E0.01952
G1 X114.413 Y99.738 E0.04580
G1 X114.413 Y100.392 E0.02517
G1 X115.510 Y99.295 E0.05970
G1 X115.777 Y99.682 E0.01810
G1 X114.413 Y101.047 E0.07424
G1 X114.413 Y101.701 E0.02517
G1 X116.099 Y100.015 E0.09175
G1 X116.446 Y100.322 E0.01783
G1 X114.413 Y102.355 E0.11063
G1 X114.413 Y103.010 E0.02517
G1 X116.832 Y100.590 E0.13163
G1 X117.261 Y100.816 E0.01865
G1 X116.205 Y101.872 E0.05745
M201 X4000 Y4000
M204 P4000 T4000
G1 X115.749 Y102.328 F18000.000
M201 X500 Y500
M204 P500 T500
G1 F2400
G1 X114.413 Y103.664 E0.07270
G1 X114.413 Y104.318 E0.02517
G1 X115.008 Y103.723 E0.03238
G1 X114.916 Y103.967 E0.01004
G1 X114.846 Y104.540 E0.02218
G1 X114.413 Y104.973 E0.02357
G1 X114.413 Y105.627 E0.02517
G1 X114.821 Y105.219 E0.02218
G1 X114.891 Y105.803 E0.02261
G1 X114.413 Y106.281 E0.02603
G1 X114.413 Y106.936 E0.02517
G1 X115.034 Y106.315 E0.03380
G1 X115.214 Y106.789 E0.01952
G1 X114.413 Y107.590 E0.04359
G1 X114.413 Y108.244 E0.02517
G1 X115.450 Y107.208 E0.05641
G1 X115.717 Y107.595 E0.01810
G1 X114.413 Y108.899 E0.07095
G1 X114.413 Y109.553 E0.02517
G1 X116.021 Y107.945 E0.08748
G1 X116.368 Y108.253 E0.01783
G1 X114.413 Y110.207 E0.10636
G1 X114.413 Y110.862 E0.02517
G1 X116.735 Y108.540 E0.12635
G1 X117.164 Y108.765 E0.01865
G1 X114.413 Y111.516 E0.14970
